build/location/MapLocationOutline.svg

<svg xmlns="http://www.w3.org/2000/svg" fill="none" viewBox="0 0 24 24" focusable="false"><path d="M0 0H24V24H0z"/><path fill="#74767B" fill-rule="evenodd" d="M11.5398 3.00934C13.7998 2.87683 16.2002 4.15527 16.5569 6.98834C16.582 7.18781 16.5972 7.37335 16.5996 7.54041C16.6123 8.414 16.3357 9.29761 15.9343 10.1187L20.042 11.239C20.6077 11.3932 21 11.9069 21 12.4932L21 19.2982C21 20.1554 20.1848 20.778 19.3579 20.5524L15.7961 19.581C15.6013 19.5279 15.397 19.5208 15.199 19.5604L8.31787 20.9366C8.10913 20.9784 7.89331 20.9683 7.68945 20.907L3.92651 19.7782C3.37646 19.6132 3 19.1071 3 18.533L3 11.7475C3 10.8766 3.83936 10.2521 4.67358 10.5023L7.68945 11.407C7.89331 11.4683 8.10913 11.4784 8.31787 11.4366L8.42139 11.416C8.16016 11.0267 7.91577 10.6185 7.70581 10.1994C7.28296 9.35571 6.98755 8.44275 7.00049 7.54041C7.0415 4.68982 9.28076 3.14172 11.5398 3.00934ZM9.00049 12.218L8.49438 12.3192C8.14648 12.3888 7.77075 12.3711 7.43091 12.2691L4.41504 11.3643C4.35083 11.3451 4.28931 11.3406 4.23022 11.351C4.17139 11.3614 4.11499 11.3866 4.06128 11.4266C4.00757 11.4666 3.96729 11.5133 3.94019 11.5668C3.91333 11.6202 3.8999 11.6805 3.8999 11.7475L3.8999 18.533C3.8999 18.6922 4.03271 18.8704 4.18506 18.9161C5.46948 19.3015 7.68945 20 8 20C8.31055 20 12.6978 19.1428 15.0225 18.6779C15.1924 18.6439 15.3613 18.6299 15.5298 18.6357C15.6982 18.6415 15.866 18.6671 16.033 18.7127L19.5947 19.6841C19.6584 19.7015 19.7192 19.7045 19.7771 19.6931C19.8352 19.6818 19.8904 19.6561 19.9429 19.6161C19.9951 19.576 20.0344 19.5295 20.0608 19.4766C20.0869 19.4236 20.1001 19.3641 20.1001 19.2982L20.1001 12.4932C20.1001 12.3313 19.9614 12.1498 19.8052 12.1072L15.4668 10.9669C15.1226 11.5297 14.7327 12.0613 14.3457 12.5388C13.7859 13.2299 13.2258 13.816 12.8062 14.2291C12.5759 14.4556 12.3428 14.6796 12.0977 14.8907C11.9277 15.0367 11.6719 15.0363 11.502 14.8903C11.2573 14.6789 11.0239 14.4554 10.7939 14.2291C10.3743 13.816 9.81421 13.2299 9.25415 12.5388C9.16968 12.4344 9.08496 12.3273 9.00049 12.218ZM11.8 13.969C11.6982 13.8741 11.574 13.7559 11.4333 13.6174C11.03 13.2205 10.4937 12.6591 9.95996 12.0004C9.42529 11.3404 8.90015 10.5911 8.51318 9.81842C8.12451 9.04272 7.8877 8.26904 7.89819 7.55261C7.9314 5.25153 9.70117 3.98987 11.5938 3.87897C13.4854 3.76813 15.3787 4.81293 15.6658 7.09399C15.6882 7.27264 15.7002 7.4256 15.7019 7.55261C15.7124 8.26904 15.4756 9.04272 15.0869 9.81842C14.7 10.5911 14.1748 11.3404 13.6401 12.0004C13.1064 12.6591 12.5701 13.2205 12.1667 13.6174C12.0261 13.7559 11.9019 13.8741 11.8 13.969ZM8.93359 7.68054C8.93359 6.14447 10.2168 4.89929 11.7996 4.89929C13.3826 4.89929 14.6655 6.14447 14.6655 7.68054C14.6655 9.21661 13.3826 10.4619 11.7996 10.4619C10.2168 10.4619 8.93359 9.21661 8.93359 7.68054ZM11.7996 5.77051C10.7126 5.77051 9.83154 6.62567 9.83154 7.68054C9.83154 8.73547 10.7126 9.59058 11.7996 9.59058C12.8867 9.59058 13.7678 8.73547 13.7678 7.68054C13.7678 6.62567 12.8867 5.77051 11.7996 5.77051Z"/></svg>

<svg xmlns="http://www.w3.org/2000/svg" fill="none" viewBox="0 0 24 24" focusable="false"><path fill="#74767B" fill-rule="evenodd" d="M11.53 3c2.26-.13 4.67 1.15 5.02 3.98.03.2.04.39.04.56.02.87-.26 1.75-.66 2.57l4.11 1.12c.56.16.96.67.96 1.26v6.8c0 .86-.82 1.48-1.65 1.26l-3.56-.97c-.19-.06-.4-.06-.6-.02l-6.88 1.37q-.315.06-.63-.03l-3.76-1.13c-.55-.16-.92-.67-.92-1.24v-6.79c0-.87.83-1.49 1.67-1.24l3.01.9q.315.09.63.03l.11-.02c-.26-.39-.51-.8-.72-1.22-.42-.84-.72-1.75-.7-2.65.04-2.86 2.28-4.4 4.53-4.54M9 12.21l-.51.1c-.35.07-.72.06-1.06-.05l-3.02-.9a.4.4 0 0 0-.18-.01c-.06.01-.12.03-.17.07-.06.04-.1.09-.12.14-.03.06-.05.12-.05.18v6.79c0 .16.14.34.29.38C5.46 19.3 7.68 20 8 20c.31 0 4.69-.86 7.02-1.33a2.15 2.15 0 0 1 1.01.04l3.56.97a.38.38 0 0 0 .35-.07c.05-.04.09-.09.12-.14.02-.05.04-.11.04-.18v-6.8c0-.16-.14-.35-.3-.39l-4.34-1.14c-.34.56-.73 1.1-1.12 1.57-.56.69-1.12 1.28-1.54 1.69-.23.23-.46.45-.71.67-.17.14-.42.14-.59 0-.25-.22-.48-.44-.71-.67-.42-.41-.98-1-1.54-1.69-.09-.1-.17-.21-.25-.32m2.8 1.75c-.11-.09-.23-.21-.37-.35-.4-.39-.94-.96-1.48-1.61-.53-.66-1.05-1.41-1.44-2.19-.39-.77-.63-1.55-.62-2.26.04-2.3 1.81-3.57 3.7-3.68s3.78.94 4.07 3.22c.02.18.04.33.04.46.01.71-.23 1.49-.62 2.26-.38.78-.91 1.53-1.44 2.19-.54.65-1.07 1.22-1.48 1.61-.14.14-.26.26-.36.35M8.93 7.68c0-1.54 1.28-2.79 2.86-2.79 1.59 0 2.87 1.25 2.87 2.79 0 1.53-1.28 2.78-2.87 2.78-1.58 0-2.86-1.25-2.86-2.78m2.86-1.91c-1.08 0-1.96.85-1.96 1.91 0 1.05.88 1.91 1.96 1.91 1.09 0 1.97-.86 1.97-1.91 0-1.06-.88-1.91-1.97-1.91"/></svg>
